!!!OTL: NUN WILL ICH MARIA GRUESSEN
!!!ARE: Europa, Mitteleuropa, Deutschland, Baden, Merzhausen
!!!SCT: E2081
!!!YEM: Copyright 1995, estate of Helmut Schaffrath.
**kern
*ICvox
*Ivox
*M4/4
*k[b-]
*F:
=1
{8g
8b-
4b-
4g
4c
=2
8a
8cc
4cc
4a
4f}
=3
{8g
8b-
4b-
4g
4c
=4
8a
8cc
4cc
4a
4f}
=5
{2dd
4ff
4dd
=6
2cc
4ff}
{4cc
=7
4a
4a
8g
8f
8g
8a
=8
2f
2r}
==
!!!AGN: geistlich, Marien - Lied
!!!ONB: ESAC (Essen Associative Code) Database: ERK3
!!!AMT: simple quadruple
!!!AIN: vox
!!!EED: Helmut Schaffrath
!!!EEV: 1.0
*-
